X:997
T:Paddy's Resource
T:Tiosgnad Paidin
R:double jig
S:997 O'Neill's Music of Ireland
N:a tilde has been used to denote shakes and trills
B:O'Neill's 997
Z:Transcribed by Robert Thorpe (thorpe@skep.com)
Z:ABCMUS 1.0
M:6/8
K:G
G|GAG DB,D|GBd ~e2 d|gBB c-BAG|cEE ~E2 D|
|GAG DB,D|GBd ~e2 d|gBB c-BAG|cEF G2 :|
G|GBd GBd|dcB BAG|GBd efg|dcB ~A2 G|
|GBd gfe|dcB AGF|GAG DB,d|BGG G2 :|
